X: 162
T: The First Day Of Spring
R: Reel
M: 4/4
L: 1/8
Z: Bernie Stocks
K: Gdor
dc{d}cA GFDF | G2cG dGcG | dAcA GFDF | Gg (3.f.g.a ~g3a |
ba{ga}gf dcAg | agfd {cd}cAFA | G2cG dGcG | Ad{cd}cA G4 :|
|: ~g3a bg~g2 | gbag fdde | fage f2cf | Afag fd{cd}cA |
~g3a bg~g2 | afge fd{cd}cA | G2cG dGcG | Ad{cd}cA G4 :|
|:DG (3.G.G.G GdcA | G2cG dGcG | DF~F2 FcAG | F2 (3.F.F.F dFcF |
DG (3.G.G.G GdcA | G2cG dGcg | ag{a}ge fdcA | AdcA G4 :|
